public/assets/svgs/addons/ember-drop.svg

<svg height="57" viewBox="0 0 58 57" width="58" xmlns="http://www.w3.org/2000/svg"><g fill="none" fill-rule="evenodd"><path d="m53 7h-48c-2.722 0-5 2.277-5 5v31.495c0 2.722 2.278 5 5 5h13.578l-3.323-3.289c-.393-.389-.396-1.022-.007-1.415.389-.392 1.021-.396 1.414-.007l4.042 4c.007.007.009.017.017.025.006.007.016.009.022.017l8.257 9.174 8.257-9.174c.031-.035.072-.05.106-.08l4.005-3.962c.393-.389 1.026-.384 1.414.007.388.393.386 1.026-.007 1.415l-3.324 3.289h13.549c2.722 0 5-2.278 5-5v-31.495c0-2.723-2.278-5-5-5" fill="#7383bf"/><path d="m51 7v-3.207c0-2.066-1.728-3.793-3.793-3.793h-36.414c-2.065 0-3.793 1.727-3.793 3.793v3.207z" fill="#536396"/><g fill="#fff"><path d="m15 28h28c.552 0 1-.447 1-1s-.448-1-1-1h-28c-.552 0-1 .447-1 1s.448 1 1 1"/><path d="m43 34h-28c-.552 0-1 .447-1 1s.448 1 1 1h28c.552 0 1-.447 1-1s-.448-1-1-1"/><path d="m15 20h15c.552 0 1-.447 1-1s-.448-1-1-1h-15c-.552 0-1 .447-1 1s.448 1 1 1"/></g></g></svg>

<?xml version="1.0" encoding="UTF-8" standalone="no"?>
<svg width="58px" height="57px" viewBox="0 0 58 57" version="1.1" xmlns="http://www.w3.org/2000/svg" xmlns:xlink="http://www.w3.org/1999/xlink">
    <!-- Generator: Sketch 40.1 (33804) - http://www.bohemiancoding.com/sketch -->
    <title>60 - Chat Conversation (communication, dialogue, discussion, flat)</title>
    <desc>Created with Sketch.</desc>
    <defs></defs>
    <g id="Page-1" stroke="none" stroke-width="1" fill="none" fill-rule="evenodd">
        <g id="Icons" transform="translate(-121.000000, -838.000000)">
            <g id="Chat-Conversation" transform="translate(121.000000, 838.000000)">
                <path d="M53,7 L5,7 C2.278,7 0,9.277 0,12 L0,43.495 C0,46.217 2.278,48.495 5,48.495 L18.578,48.495 L15.255,45.206 C14.862,44.817 14.859,44.184 15.248,43.791 C15.637,43.399 16.269,43.395 16.662,43.784 L20.704,47.784 C20.711,47.791 20.713,47.801 20.721,47.809 C20.727,47.816 20.737,47.818 20.743,47.826 L29,57 L37.257,47.826 C37.288,47.791 37.329,47.776 37.363,47.746 L41.368,43.784 C41.761,43.395 42.394,43.4 42.782,43.791 C43.17,44.184 43.168,44.817 42.775,45.206 L39.451,48.495 L53,48.495 C55.722,48.495 58,46.217 58,43.495 L58,12 C58,9.277 55.722,7 53,7" id="Fill-44" fill="#7383BF"></path>
                <path d="M51,7 L51,3.793 C51,1.727 49.272,0 47.207,0 L10.793,0 C8.728,0 7,1.727 7,3.793 L7,7 L51,7" id="Fill-412" fill="#536396"></path>
                <path d="M15,28 L43,28 C43.552,28 44,27.553 44,27 C44,26.447 43.552,26 43,26 L15,26 C14.448,26 14,26.447 14,27 C14,27.553 14.448,28 15,28" id="Fill-711" fill="#FFFFFF"></path>
                <path d="M43,34 L15,34 C14.448,34 14,34.447 14,35 C14,35.553 14.448,36 15,36 L43,36 C43.552,36 44,35.553 44,35 C44,34.447 43.552,34 43,34" id="Fill-712" fill="#FFFFFF"></path>
                <path d="M15,20 L30,20 C30.552,20 31,19.553 31,19 C31,18.447 30.552,18 30,18 L15,18 C14.448,18 14,18.447 14,19 C14,19.553 14.448,20 15,20" id="Fill-713" fill="#FFFFFF"></path>
            </g>
        </g>
    </g>
</svg>
